src/images/done-icon.svg

<svg width="107" height="102" viewBox="0 0 107 102" fill="none" xmlns="http://www.w3.org/2000/svg">
<path fill-rule="evenodd" clip-rule="evenodd" d="M8.36637 37.3873C2.54454 45.5044 2.54455 56.4957 8.36637 64.6127L28.3336 92.4518C34.1554 100.569 44.4748 103.965 53.8947 100.865L86.2023 90.2313C95.6223 87.1309 102 78.2387 102 68.2055V33.7945C102 23.7612 95.6222 14.8691 86.2023 11.7687L53.8947 1.13508C44.4748 -1.96536 34.1554 1.43114 28.3336 9.54819L8.36637 37.3873Z" fill="url(#paint0_radial)" fill-opacity="0.25"/>
<path fill-rule="evenodd" clip-rule="evenodd" d="M103.944 39.453C108.019 46.5983 108.019 55.4017 103.944 62.547L88.5996 89.453C84.5247 96.5983 76.994 101 68.8442 101H38.1558C30.006 101 22.4753 96.5983 18.4004 89.453L3.05617 62.547C-1.01872 55.4017 -1.01872 46.5983 3.05617 39.453L18.4004 12.547C22.4753 5.40169 30.006 1 38.1558 1L68.8442 1C76.994 1 84.5247 5.40169 88.5996 12.547L103.944 39.453Z" fill="url(#paint1_radial)" fill-opacity="0.25"/>
<path fill-rule="evenodd" clip-rule="evenodd" d="M43.9249 20.9109C49.3362 17.0297 56.6638 17.0297 62.0751 20.9109L80.6345 34.2224C86.0459 38.1036 88.3102 44.9832 86.2433 51.2632L79.1542 72.8016C77.0873 79.0815 71.1592 83.3333 64.4703 83.3333H41.5296C34.8408 83.3333 28.9127 79.0815 26.8458 72.8016L19.7567 51.2632C17.6898 44.9832 19.9541 38.1036 25.3655 34.2224L43.9249 20.9109Z" fill="url(#paint2_radial)" fill-opacity="0.25"/>
<path fill-rule="evenodd" clip-rule="evenodd" d="M73.3122 37.5959C74.1999 38.4172 74.2327 39.7806 73.3852 40.641L50.0519 64.3333C49.6272 64.7646 49.0371 65.0059 48.422 64.9999C47.8069 64.9939 47.222 64.741 46.8063 64.3016L34.5841 51.3785C33.7548 50.5016 33.8159 49.1392 34.7206 48.3354C35.6253 47.5316 37.031 47.5908 37.8604 48.4677L48.4773 59.6934L70.1703 37.6667C71.0177 36.8062 72.4244 36.7745 73.3122 37.5959Z" fill="#F2F2F3"/>
<defs>
<radialGradient id="paint0_radial" cx="0" cy="0" r="1" gradientUnits="userSpaceOnUse" gradientTransform="translate(53 51) rotate(-46.1458) scale(70.7248 53.2019)">
<stop stop-color="#801AB3" stop-opacity="0"/>
<stop offset="1" stop-color="#4C4CFF"/>
</radialGradient>
<radialGradient id="paint1_radial" cx="0" cy="0" r="1" gradientUnits="userSpaceOnUse" gradientTransform="translate(53.5 51) rotate(-43.0632) scale(73.2274 55.0025)">
<stop stop-color="#801AB3" stop-opacity="0"/>
<stop offset="1" stop-color="#4C4CFF"/>
</radialGradient>
<radialGradient id="paint2_radial" cx="0" cy="0" r="1" gradientUnits="userSpaceOnUse" gradientTransform="translate(53 50.6667) rotate(136.146) scale(47.1499 35.4679)">
<stop stop-color="#801AB3" stop-opacity="0"/>
<stop offset="1" stop-color="#4C4CFF" stop-opacity="0.5"/>
</radialGradient>
</defs>
</svg>

<svg width="107" height="102" fill="none" xmlns="http://www.w3.org/2000/svg"><path fill-rule="evenodd" clip-rule="evenodd" d="M8.366 37.387c-5.821 8.117-5.821 19.109 0 27.226l19.968 27.839c5.821 8.117 16.14 11.513 25.56 8.413l32.308-10.634C95.622 87.131 102 78.24 102 68.206V33.794c0-10.033-6.378-18.925-15.798-22.025L53.895 1.135c-9.42-3.1-19.74.296-25.561 8.413L8.366 37.388Z" fill="url(#a)" fill-opacity=".25"/><path fill-rule="evenodd" clip-rule="evenodd" d="M103.944 39.453a23.341 23.341 0 0 1 0 23.094L88.6 89.453C84.525 96.598 76.994 101 68.844 101H38.156c-8.15 0-15.68-4.402-19.756-11.547L3.056 62.547a23.342 23.342 0 0 1 0-23.094L18.4 12.547C22.475 5.402 30.006 1 38.156 1h30.688c8.15 0 15.68 4.402 19.756 11.547l15.344 26.906Z" fill="url(#b)" fill-opacity=".25"/><path fill-rule="evenodd" clip-rule="evenodd" d="M43.925 20.91a15.602 15.602 0 0 1 18.15 0l18.56 13.312c5.41 3.882 7.675 10.761 5.608 17.041l-7.089 21.539c-2.067 6.28-7.995 10.531-14.684 10.531H41.53c-6.69 0-12.617-4.251-14.684-10.531l-7.09-21.539c-2.066-6.28.198-13.16 5.61-17.04L43.925 20.91Z" fill="url(#c)" fill-opacity=".25"/><path fill-rule="evenodd" clip-rule="evenodd" d="M73.312 37.596c.888.821.92 2.185.073 3.045L50.052 64.333a2.257 2.257 0 0 1-1.63.667 2.255 2.255 0 0 1-1.616-.698L34.584 51.378a2.108 2.108 0 0 1 .137-3.043 2.272 2.272 0 0 1 3.14.133l10.616 11.225L70.17 37.667a2.272 2.272 0 0 1 3.142-.071Z" fill="#F2F2F3"/><defs><radialGradient id="a" cx="0" cy="0" r="1" gradientUnits="userSpaceOnUse" gradientTransform="matrix(48.99995 -51.00002 38.36416 36.85964 53 51)"><stop stop-color="#801AB3" stop-opacity="0"/><stop offset="1" stop-color="#4C4CFF"/></radialGradient><radialGradient id="b" cx="0" cy="0" r="1" gradientUnits="userSpaceOnUse" gradientTransform="matrix(53.50001 -50.00001 37.55596 40.18488 53.5 51)"><stop stop-color="#801AB3" stop-opacity="0"/><stop offset="1" stop-color="#4C4CFF"/></radialGradient><radialGradient id="c" cx="0" cy="0" r="1" gradientUnits="userSpaceOnUse" gradientTransform="rotate(136.146 16.302 36) scale(47.1499 35.4679)"><stop stop-color="#801AB3" stop-opacity="0"/><stop offset="1" stop-color="#4C4CFF" stop-opacity=".5"/></radialGradient></defs></svg>
